www/assets/icons/picture_in_picture_alt.svg

<svg xmlns="http://www.w3.org/2000/svg" width="24" height="24" viewBox="0 0 24 24" fill='currentColor'><path d="M19 11h-8v6h8zm4 8V4.98C23 3.88 22.1 3 21 3H3c-1.1 0-2 .88-2 1.98V19c0 1.1.9 2 2 2h18c1.1 0 2-.9 2-2m-2 .02H3V4.97h18z"/></svg>

<svg width="24" height="24" viewBox="0 0 24 24" xmlns="http://www.w3.org/2000/svg" fill='currentColor'><path d="M19 11H11V17H19V11ZM23 19V4.98C23 3.88 22.1 3 21 3H3C1.9 3 1 3.88 1 4.98V19C1 20.1 1.9 21 3 21H21C22.1 21 23 20.1 23 19ZM21 19.02H3V4.97H21V19.02Z"/></svg>
